X:4
T:Luise-Polka  EbAb (5letras) cf. CF
M:2/4
L:1/16
K:Ebmaj%%MIDI gchordon
G2A2 |: "Eb"B2g2 "Bb7"A2f2 | "Eb"G2e2 eBGE | "Bb7"D2c2 cBAF | "Eb"E2c2 cBGA | B2g2 "Bb7"A2f2 |
"Eb"G2e2 eBGE | "Bb7"D2c2 cBAD |1 "Eb"E2e2 e2GA :|2 "Eb"E2e2 e2de || 
|: "Bb7"f2f2 edcd | "Eb"e2e2 G3c | "Bb7"B2Fc B2A2 | "Eb"GABc B2B2 | "Bb7"f2f2 edcd | 
"Eb"e2e2 G3c | "Bb7"B2Fc BAGF | "Eb"E2e2 e2z2 :: [K:Abmaj] "Ab"A2E2 ccc2 | e2A2 ccc2 | "Eb7"e2B2 B=ABd | 
"Ab"c2A2 AGA2 | A2E2 ccc2 | e2A2 ccc2 | "Eb7"e2B2 dcB2 | "Ab"A2A2 A2z2 :| 

